X:5937
T:Gan Ainm
R:Strathspey
S:Natalie McMaster
H:
N:
D:Solo Album #1
Z:Adrian Scahill
M:4/4
L:1/8
K:D
F2(3ABc dA =c<G|E2=CE =cG E<G|F2 (3ABc dA B<G|F<A (3ABc d/2c/2B/2A/2 d<f|\
F2(3ABc dA =c<G|E2=CE =cG E<A|DEFG AdAF|GE A/2G/2F/E/2 F<D dA||\
A<d fd gefd|e2fd gec<e|d2fd gefd|e2ag fddB|\
A<d fd gefd|e2fd gec<e|defg abaf|ge a/2g/2f/2e/2 fddA||


